X:1
T:Title
%%score 1 { ( 2 5 ) | ( 3 4 ) }
L:1/8
M:4/4
K:Ab
V:1 treble nm="Brass Section"
V:2 treble nm="Grand Piano"
V:5 treble 
V:3 bass 
V:4 bass 
V:1
 z8[Q:1/4=100] | z8 | z8 | z8 |[M:7/8] z7 |[M:1/8] E |[M:4/4] AAAB cccA | .B>B AF E3 E | %8
 FA=EA _EAec | cFBc B3 B | cccd eefe | c4- cccc | cc_c=c d2 c2 | F4- FFFG | AAGA e2 e2 | e4- eeed | %16
 cBcA B3 A | A4- AE=DE | F3 A BAGA | c4- ceee |[M:21/16] [fa]3/2- [fa]3 fe/-e/AcB-<B | %21
[M:7/8] A-A-A- A3 z |] %22
V:2
 z4 z2 z E | AAAB ccce | .[Adf]2 .[d=ea]2 [c_eac']2 z E | .F2 .[=EA]2 [_EAc]2 z [Fd] | %4
[M:7/8] [Ec]2 [EB]2 [A,CEA]2 z |[M:1/8] z |[M:4/4] z2 A2 z2 A2 | z2[K:treble] A2 z2 [EA]2 | %8
 .[A,DFA]2 .[A,D=EA]2 .[A,C_EA]2 [A,EA]2 | z2 [=DFA]2 [_DEG]4 | z EAE z EAE | z EAE z EAE | %12
 z F=AF AFAF | z[K:treble] F .B2 .B2 .B2 | z2 AF[K:bass] z E[K:treble]GE | %15
 AE .[DG]2 [E_Gc][EGc][EGc][FB] | [CEF=A][DFB] .[CE_A]2 z GGA | [CEA]4- [CEA]c'_c'=c' | %18
 [fd']3 f' [b=e']e'e'e' | [ec'e']4- [ec'e'][EAc][EGd][_GAe] | %20
[M:21/16] [DFAd]3/2- [DFAd]3 [_CFA][=CEA]/-[CEA]/ z [DEG]3 |[M:7/8] [CEA]-[CEA]-[CEA]- [CEA]3 z |] %22
V:3
 z8 | [A,,A,]2 [E,A,C]2 [A,,A,]2 [E,A,C]2 | .[D,D]2 .[D=EA]2 [A,,A,]2 z2 | %3
 .[D,A,D]2 .[D,A,]2 [A,,A,]2 z D, |[M:7/8] z2 D2 A,,2 z |[M:1/8] z |[M:4/4] z2 [CE]2 z2 [CE]2 | %7
 z2 [DF]2 z2 C2 | .A,,2 .A,,2 .A,,2 C,2 | z2 B,2 E,4 | z2 .C2 z2 .C2 | z2 .C2 z2 .C2 | %12
 z2[K:treble] .E2 .E2 .E2 | z2 DF DFDF | z F ._C2 z2 .[D,B,]2 | .[C,C]2 z E [=A,,=A,]2 z D | %16
 C,D, .E,2 z [DE][DE][CE] | [A,,A,]F,E,C, A,,[K:treble]e=de | z F,A,[K:treble]a z aga | %19
 A,,A,,C,E, A,A,,B,,C, |[M:21/16] D,3/2- D,3 D,E,/-E,/ z E,3 |[M:7/8] A,F,E, C, A,,2 z |] %22
V:4
 x8 | x8 | x8 | x8 |[M:7/8] E,- E,3 z z2 |[M:1/8] x |[M:4/4] A,,4 A,,4 | z4 A,,4 | x8 | B,,4 z4 | %10
 A,,4 A,,4 | A,,4 A,,4 | F,,8[K:treble] | x8 | D,4 z4 | z2 B,,2 z2 [B,,B,]2 | z4 E,,4 | %17
 x5[K:treble] x3 | A,,4[K:treble] D,4 | x8 |[M:21/16] x21/2 |[M:7/8] x7 |] %22
V:5
 x8 | x8 | x8 | x8 |[M:7/8] x7 |[M:1/8] x |[M:4/4] A,4 A,4 | D,4[K:treble] A,4 | x8 | x8 | %10
 A,4 A,4 | A,4 A,4 | F,8 | D,8[K:treble] | z4[K:bass] E,2[K:treble] z2 | x8 | z4 E,4 | x8 | x8 | %19
 x8 |[M:21/16] x21/2 |[M:7/8] x7 |] %22

